X: 25693
T: Martin's Mill
R: reel
M: 4/4
K: Cmajor
A2|:d3e fedc|AD (3^FED E^FGE|Ad d2 adge|fedc Addc|
d2 fe dcAG|AD (3^FED E^FGE|Aeag eddc|cAGE ED^FA:|
d3e fdec|defg gce^c|d^cde f3 a|gecd eddc|
f3 e dcA^F|GcAG ^FDCE|DAag eddc|cAGE ED^FA||
d3e fdgd|defg gce^c|d^cde f3a|gecd eddc|
eaag edcA|GcAG ^FDCE|DAag eddc|1 cAGE ED^FA:|2 cAGE EDCE D6||

